X: 9514
T: Dark Side Of The Moor, The
R: reel
M: 4/4
K: Edorian
|:"Em"BEED EFGA|"C"BGdB "D"A2GA|"Em"BEEF "C"~G3B|"D"AFEF "Bm"D2GA|
"Em"BEED EFGA|"C"BGdB "D"A2GA|"Em"BEEF "C"~G3B|"Bm"FDAF "Em"E2GA:|
|:"Em"Bege "D"Adfd|"C"GBeB "D"A2GA|"Em"BEEF "C"GABG|"D"AFdB A2GA|
"Em"Bege "D"Adfd|"C"GBeB "D"A2GA|"Em"BEEF "C"~G3B|"Bm"~F3B "C"E2GA:|

